X: 870
T: Alex Dan MacIsaac's
R: strathspey
M: 4/4
K: Adorian
B|"Am"{AB}A>AA<B "G"G>GG<B|"Am"A>B{cB}c>A "G"d/c/B/A/ G<B|"Am"{AB}A>AA<B "G"G>AB<d|"Am"{cB}c>A"G"{BA}B>G "Em"A>GE:|
a|"C"{ga}g>ee<g "G"e<dB>g|"Am"{eg}e>de<g a>b{ab}a>e|"C"g>ee<g "G"G>AB<d|"Am"{cB}c>A"G"{BA}B>G "Em"A>GE>a|
"C"{ga}g>ee<g "G"e<dB>g|"Am"{eg}e>de<g a>b{ab}a>e|"Em"g<be<g "G"G>AB<d|"Am"{cB}c>A"G"{BA}B>G "Em"A>GE||

